X:1
T:The Sailor and the Tailor
M:3/4
L:1/4
K:C
 E| A A A| c E F| G A G| E2 C| G A G| G E C| D C D| E2 B| c B c| d c d|\
 e c A| A- G E| F E D| E A G| A c B| A2||
